X:11
T:Valse   Bonnejoie
C:F. Paris: Carnet de Bal
M:3/4
L:1/4
K:G
Bde|dga|bge|d3|cBc|edc|B3|A3|\
Bde|dga|bge|d3|cBc|edc|BA2|G3:|
|:B B/d/ B/d/|B B/d/ B/d/|B B/d/ B/d/|c3|\
A/B/ c/d/ c|c B/c/ B/A/|c B/c/ B/A/|BG2|
B B/d/ B/d/|B B/d/ B/d/|B B/d/ B/d/|c3|\
A/B/ c/d/ c|c B/c/ B/A/|c B/c/ B/A/|G3:|
